brandFactory_export/2.Regular/Camiseta _2Regular.svg

<?xml version="1.0" encoding="UTF-8"?>
<svg width="24px" height="24px" viewBox="0 0 24 24" version="1.1" xmlns="http://www.w3.org/2000/svg" xmlns:xlink="http://www.w3.org/1999/xlink">
    <title>2.Regular/Camiseta _2Regular</title>
    <g id="Symbols" stroke="none" stroke-width="1" fill="none" fill-rule="evenodd">
        <g id="2.Regular/Camiseta-_2Regular" fill="#5CB615" fill-rule="nonzero">
            <path d="M20.4773109,9.2907563 L18.6184874,8.38655462 C18.3932773,8.2789916 18.1344538,8.29579832 17.9260504,8.42689076 C17.7176471,8.56134454 17.5932773,8.79327731 17.5932773,9.04201681 L17.6336134,22.205042 L6.29243697,22.205042 L6.33277311,9.04201681 C6.33277311,8.79327731 6.20840336,8.56134454 6,8.42689076 C5.79495798,8.29243697 5.53277311,8.27563025 5.31092437,8.38319328 L3.38487395,9.30420168 L1.63361345,5.40168067 L7.57983193,1.94957983 C7.9697479,4.12436975 9.49243697,5.30420168 11.9663866,5.30420168 C14.389916,5.30420168 15.9226891,4.09747899 16.3327731,1.96302521 L22.0168067,5.41176471 L20.4773109,9.2907563 Z M23.2773109,4.48403361 L16.097479,0.134453782 C16.087395,0.131092437 16.0806723,0.131092437 16.0705882,0.124369748 C16.0168067,0.0974789916 15.9663866,0.0806722689 15.9058824,0.0638655462 C15.8655462,0.0504201681 15.8252101,0.043697479 15.7815126,0.0403361345 C15.7680672,0.0369747899 15.7546218,0.0302521008 15.7378151,0.0302521008 C15.7109244,0.0302521008 15.6907563,0.043697479 15.6638655,0.043697479 C15.6067227,0.0504201681 15.5495798,0.0605042017 15.492437,0.0806722689 C15.4655462,0.0907563025 15.4420168,0.104201681 15.4151261,0.117647059 C15.3579832,0.14789916 15.3042017,0.181512605 15.2537815,0.228571429 C15.2369748,0.245378151 15.2201681,0.262184874 15.2067227,0.282352941 C15.1764706,0.315966387 15.1394958,0.342857143 15.1159664,0.383193277 C15.102521,0.406722689 15.0991597,0.433613445 15.092437,0.453781513 C15.0823529,0.47394958 15.0789916,0.490756303 15.0722689,0.507563025 C15.0453782,0.58487395 15.0285714,0.658823529 15.0252101,0.736134454 C15.0252101,0.742857143 15.0218487,0.746218487 15.0218487,0.752941176 C15.0218487,2.86722689 14.0504202,3.85210084 11.9663866,3.85210084 C9.88235294,3.85210084 8.91092437,2.86722689 8.91092437,0.752941176 C8.91092437,0.494117647 8.77647059,0.255462185 8.55462185,0.124369748 C8.33277311,-0.00336134454 8.0605042,-0.00672268908 7.84201681,0.121008403 L0.36302521,4.47058824 C0.043697479,4.65546218 -0.0840336134,5.05882353 0.0672268908,5.39831933 L2.38991597,10.5714286 C2.47058824,10.7495798 2.61512605,10.8840336 2.79663866,10.9512605 C2.97815126,11.0184874 3.17647059,11.0084034 3.34789916,10.9243697 L4.90420168,10.1815126 L4.86722689,22.9243697 C4.86722689,23.1159664 4.94117647,23.3008403 5.07563025,23.4386555 C5.21008403,23.5764706 5.39159664,23.6504202 5.58319328,23.6504202 L18.3529412,23.6504202 C18.5445378,23.6504202 18.7260504,23.5731092 18.8605042,23.4386555 C18.994958,23.3008403 19.0689076,23.1159664 19.0689076,22.9243697 L19.0285714,10.1882353 L20.5478992,10.9243697 C20.7260504,11.0117647 20.9344538,11.0184874 21.1159664,10.9478992 C21.3008403,10.8739496 21.4453782,10.7294118 21.5193277,10.5445378 L23.5731092,5.37142857 C23.7042017,5.04537815 23.5764706,4.66554622 23.2773109,4.48403361 Z" id="Camiseta-_2Regular"></path>
        </g>
    </g>
</svg>

<svg width="24" height="24" viewBox="0 0 24 24" xmlns="http://www.w3.org/2000/svg"><path d="M20.477 9.29l-1.859-.903a.715.715 0 00-1.025.655l.04 13.163H6.294l.04-13.163A.73.73 0 006 8.427a.7.7 0 00-.69-.044l-1.925.921-1.751-3.902L7.58 1.95c.39 2.174 1.912 3.354 4.386 3.354 2.424 0 3.957-1.207 4.367-3.341l5.684 3.449-1.54 3.879zm2.8-4.806l-7.18-4.35c-.01-.003-.016-.003-.026-.01a.873.873 0 00-.29-.084c-.013-.003-.026-.01-.043-.01-.027 0-.047.014-.074.014a.782.782 0 00-.172.037c-.026.01-.05.023-.077.037a.727.727 0 00-.161.11.36.36 0 00-.047.054c-.03.034-.068.06-.091.101-.013.024-.017.05-.024.07-.01.02-.013.038-.02.055a.792.792 0 00-.047.228c0 .007-.003.01-.003.017 0 2.114-.972 3.1-3.056 3.1s-3.055-.986-3.055-3.1a.728.728 0 00-.356-.629.71.71 0 00-.713-.003L.363 4.471a.731.731 0 00-.296.927l2.323 5.173c.08.179.225.313.407.38.181.067.38.057.55-.027l1.557-.742-.037 12.742c0 .192.074.377.209.515a.704.704 0 00.507.211h12.77a.718.718 0 00.716-.726l-.04-12.736 1.519.736a.712.712 0 00.971-.38l2.054-5.173a.728.728 0 00-.296-.887z" fill="#5CB615" fill-rule="nonzero"/></svg>
